X:615
T:Senpolska i F efter Jonk Jonas
N:Senpolska
Z:Fredrik Nilsson
O:Överhogdal, Härjedalen
S:efter Jonk Jonas Persson
N:Inte helt identisk med EÖ:s uppteckning. Underförstådda trioler är här artikulerade.
#Q:1/4=150
R:Polska
B:EÖ nr 615
M:3/4
C:Jonk Jonas Persson
K:F
~f>c ff aa | ~c>B A/2c/2B/2G/2 A(F | F)e gg aa | bg (3ceg f2 ::
fa g/2f/2e/2d/2 ~cA | Bd c/2B/2A/2G/2 AF | fa g/2f/2e/2d/2 ~cA | B/2A/2B/2d/2 c/2B/2A/2G/2 AF | Fe gg aa | bg/2e/2 ce/2g/2 f2:|

